lib/brands/icons/go.svg

<svg xmlns="http://www.w3.org/2000/svg" fill="none" aria-hidden="true" viewBox="0 0 48 48"><g id="go-Icon"><path id="Vector" fill="#00ACD7" d="M26.8542 17.5665L26.942 17.6252C27.9742 18.3068 28.7142 19.2416 29.2011 20.3712C29.318 20.5465 29.2401 20.6438 29.0064 20.7023L28.6108 20.8035C27.7165 21.0339 27.0068 21.2276 26.1243 21.458L25.621 21.5891C25.4397 21.634 25.3897 21.6151 25.1969 21.3956L25.1697 21.3644C24.8948 21.0528 24.6888 20.8447 24.3246 20.659L24.2544 20.6244C23.0274 20.0206 21.8394 20.1959 20.7293 20.9165C19.405 21.7734 18.7234 23.0393 18.7428 24.6168C18.7623 26.1748 19.8335 27.4602 21.372 27.6744C22.6963 27.8497 23.8064 27.3823 24.6828 26.3891C24.8581 26.1748 25.0139 25.9411 25.2087 25.6685H21.4499C21.0409 25.6685 20.9436 25.4153 21.0799 25.0842L21.1474 24.9253C21.3977 24.3429 21.7859 23.5059 22.0381 23.0273L22.0931 22.9243C22.1604 22.8076 22.2971 22.6498 22.56 22.6498L28.8275 22.6498C29.109 21.758 29.5657 20.9153 30.1749 20.118C31.5966 18.2484 33.3104 17.2746 35.628 16.8656C37.6145 16.5151 39.4841 16.7098 41.1785 17.8589C42.717 18.9105 43.6713 20.3322 43.9245 22.2019C44.2556 24.831 43.496 26.9733 41.6848 28.804C40.3994 30.1089 38.8219 30.9268 37.0107 31.2969C36.4849 31.3942 35.9591 31.4137 35.4527 31.4721C33.6804 31.4332 32.064 30.9268 30.7007 29.7583C29.7419 28.9295 29.0814 27.9108 28.7532 26.7249C28.5255 27.1849 28.2531 27.6254 27.9352 28.0445C26.533 29.8946 24.7023 31.0437 22.3847 31.3553C20.4762 31.6085 18.7039 31.2384 17.1459 30.0699C15.7047 28.9793 14.8867 27.5381 14.6725 25.7464C14.4193 23.6236 15.0425 21.715 16.3279 20.0401C17.7107 18.2289 19.5413 17.0799 21.781 16.6709C23.5778 16.3459 25.2995 16.5463 26.8542 17.5665ZM36.1188 20.3573L36.0564 20.3712C34.2452 20.7802 33.0767 21.9292 32.6483 23.7599C32.2977 25.279 33.0378 26.8175 34.44 27.4407C35.5111 27.9082 36.5823 27.8497 37.6145 27.3239C39.153 26.5254 39.9905 25.279 40.0878 23.6041C40.0684 23.3509 40.0684 23.1562 40.0294 22.9614C39.6828 21.055 37.9462 19.9673 36.1188 20.3573ZM13.095 23.9157C13.1729 23.9157 13.2118 23.9741 13.2118 24.052L13.1729 24.5194C13.1729 24.5973 13.095 24.6558 13.0366 24.6558L8.79094 24.6363C8.71304 24.6363 8.69356 24.5779 8.73251 24.5194L9.00517 24.0326C9.04412 23.9741 9.12202 23.9157 9.19992 23.9157H13.095ZM13.5235 22.124C13.6014 22.124 13.6403 22.1824 13.6208 22.2408L13.465 22.7082C13.4455 22.7861 13.3676 22.8251 13.2897 22.8251L4.0779 22.8446C4 22.8446 3.98052 22.8056 4.01948 22.7472L4.42846 22.2213C4.46741 22.1629 4.56479 22.124 4.64269 22.124H13.5235ZM14.5362 20.3322C14.6141 20.3322 14.6335 20.3907 14.5946 20.4491L14.2635 20.9554C14.2246 21.0139 14.1272 21.0723 14.0688 21.0723L7.01868 21.0528C6.94078 21.0528 6.9213 21.0139 6.96025 20.9554L7.36924 20.4296C7.40819 20.3712 7.50556 20.3322 7.58347 20.3322H14.5362Z"/></g></svg>

<svg xmlns="http://www.w3.org/2000/svg" fill="none" aria-hidden="true" viewBox="0 0 48 48"><path fill="#00ACD7" d="m26.854 17.567.088.058c1.032.682 1.772 1.617 2.26 2.746.116.176.038.273-.196.331l-.395.101c-.895.23-1.604.425-2.487.655l-.503.131c-.181.045-.231.026-.424-.193l-.027-.032c-.275-.311-.481-.52-.845-.705l-.07-.035c-1.228-.603-2.416-.428-3.526.293-1.324.856-2.006 2.122-1.986 3.7.02 1.558 1.09 2.843 2.629 3.057 1.324.176 2.434-.292 3.31-1.285.176-.214.332-.448.527-.72h-3.76c-.408 0-.505-.254-.37-.585l.068-.159c.25-.582.639-1.42.891-1.898l.055-.103a.517.517 0 0 1 .467-.274h6.268c.281-.892.738-1.735 1.347-2.532 1.422-1.87 3.135-2.843 5.453-3.252 1.986-.35 3.856-.156 5.55.993 1.539 1.051 2.493 2.473 2.747 4.343.33 2.629-.429 4.771-2.24 6.602-1.286 1.305-2.863 2.123-4.674 2.493-.526.097-1.052.117-1.558.175-1.773-.039-3.389-.545-4.752-1.714-.96-.828-1.62-1.847-1.948-3.033-.227.46-.5.9-.818 1.32-1.402 1.85-3.233 2.999-5.55 3.31-1.909.253-3.681-.117-5.24-1.285-1.44-1.09-2.258-2.532-2.473-4.324-.253-2.122.37-4.031 1.656-5.706 1.383-1.811 3.213-2.96 5.453-3.37 1.797-.324 3.518-.124 5.073.896Zm9.265 2.79-.063.014c-1.81.41-2.98 1.558-3.408 3.389-.35 1.519.39 3.057 1.792 3.68 1.071.468 2.142.41 3.175-.116 1.538-.799 2.375-2.045 2.473-3.72-.02-.253-.02-.448-.059-.643-.346-1.906-2.083-2.994-3.91-2.604Zm-23.024 3.559c.078 0 .117.058.117.136l-.04.467c0 .078-.077.137-.135.137l-4.246-.02c-.078 0-.097-.058-.058-.117l.272-.486c.04-.059.117-.117.195-.117h3.895Zm.428-1.792c.078 0 .117.058.098.117l-.156.467c-.02.078-.097.117-.175.117l-9.212.02c-.078 0-.097-.04-.059-.098l.41-.526c.038-.058.136-.097.214-.097h8.88Zm1.013-1.792c.078 0 .098.059.059.117l-.332.506c-.038.059-.136.117-.194.117l-7.05-.02c-.078 0-.098-.038-.059-.097l.41-.525c.038-.059.136-.098.213-.098h6.953Z"/></svg>
